icons/kirby-logo.svg

<?xml version="1.0" encoding="UTF-8"?>
<svg width="512px" height="178px" viewBox="0 0 512 178" version="1.1" xmlns="http://www.w3.org/2000/svg" xmlns:xlink="http://www.w3.org/1999/xlink" preserveAspectRatio="xMidYMid">
    <g>
        <path d="M76.172214,0 L152.344428,44.4253279 L152.344428,133.309838 L76.172214,177.735166 L0,133.309838 L0,44.4253279 L76.172214,0 Z M76.172214,9.98702361 L8.46357933,49.4823166 L8.46357933,128.252849 L76.172214,167.743911 L143.880849,128.252849 L143.880849,49.4823166 L76.172214,9.98702361 Z M470.765441,68.6100059 L480.667829,103.936986 L491.094959,68.6100059 L512,68.6100059 L486.461149,141.752258 L485.360884,144.418286 C481.730009,152.522163 475.323079,156.576218 466.135864,156.576218 C463.411737,156.551418 460.703236,156.161439 458.082768,155.416707 L458.082768,141.460265 L460.630305,141.460265 C463.372505,141.460265 465.467241,141.066709 466.914513,140.275364 C468.361785,139.484019 469.43666,138.062138 470.130673,136.018183 L471.696435,131.849871 L449.919646,68.6100059 L470.765441,68.6100059 Z M409.150584,42.3178967 L409.150584,73.6458356 C412.777228,69.5156089 417.470282,67.4504955 423.221285,67.4504955 C431.020473,67.4504955 437.04231,70.2519403 441.291026,75.8463662 C445.535511,81.4450239 447.65987,89.3203845 447.65987,99.4766797 L447.65987,100.458455 L447.664102,100.458455 C447.664102,110.729008 445.535511,118.625528 441.291026,124.148013 C437.04231,129.666267 431.058559,132.425394 423.339775,132.425394 C416.966699,132.425394 411.829307,129.899016 407.93606,124.842027 L407.123557,131.270115 L389.63357,131.270115 L389.63357,42.3178967 L409.150584,42.3178967 Z M257.305507,46.9517064 L257.305507,84.1279786 L264.372596,73.4173189 L282.556596,46.9517064 L307.693427,46.9517064 L279.196555,84.2464687 L307.693427,131.270115 L283.601848,131.270115 L265.650596,99.8829315 L265.646365,99.8829315 L257.309739,109.032061 L257.309739,131.270115 L236.980221,131.270115 L236.980221,46.9517064 L257.305507,46.9517064 Z M332.534032,68.6100059 L332.534032,131.270115 L312.957773,131.270115 L312.957773,68.6100059 L332.534032,68.6100059 Z M377.357148,67.4504955 C379.439189,67.4504955 381.254626,67.6832439 382.79923,68.144509 L382.452223,86.2734959 L376.024134,85.8079991 C369.888039,85.8079991 365.948243,87.7376952 364.208978,91.6013191 L364.208978,131.270115 L344.696196,131.270115 L344.696196,68.6100059 L362.994454,68.6100059 L363.629222,76.6588698 C366.913091,70.5227748 371.487656,67.4504955 377.357148,67.4504955 Z M110.026531,67.7086347 L110.026531,88.867583 L88.867583,99.8279182 L88.867583,101.562952 L110.026531,101.562952 L110.026531,118.490111 L42.3178967,118.490111 L42.3178967,101.562952 L63.476845,101.562952 L63.476845,99.7136599 L42.3178967,88.867583 L42.3178967,67.7086347 L76.172214,85.8926349 L110.026531,67.7086347 Z M418.299713,82.5072031 C413.898652,82.5072031 410.851763,84.1872236 409.150584,87.5430328 L409.150584,112.447115 C410.809445,115.76907 413.898652,117.427931 418.418203,117.427931 C423.009695,117.427931 425.925398,115.189315 427.161081,110.712081 C427.778922,108.511551 428.087843,104.686013 428.087843,99.2439313 C428.087843,93.2220946 427.283803,88.9268281 425.684186,86.3581317 C424.080338,83.7936672 421.621668,82.5072031 418.299713,82.5072031 Z M322.673962,42.3178967 C328.516844,42.3178967 333.253436,47.0544886 333.253436,52.8973708 C333.253436,58.7402531 328.516844,63.476845 322.673962,63.476845 C316.83108,63.476845 312.094488,58.7402531 312.094488,52.8973708 C312.094488,47.0544886 316.83108,42.3178967 322.673962,42.3178967 Z" fill="#000000"></path>
    </g>
</svg>

<svg xmlns="http://www.w3.org/2000/svg" viewBox="0 0 512 177.735">
  <path d="m76.172 0 76.172 44.425v88.885l-76.172 44.425L0 133.31V44.425zm0 9.987L8.464 49.482v78.77l67.708 39.492 67.709-39.491v-78.77zM470.765 68.61l9.903 35.327 10.427-35.327H512l-25.539 73.142-1.1 2.666c-3.631 8.104-10.038 12.158-19.225 12.158a30.473 30.473 0 0 1-8.053-1.16V141.46h2.547c2.743 0 4.837-.393 6.285-1.185 1.447-.791 2.522-2.213 3.216-4.257l1.565-4.168-21.776-63.24zm-61.614-26.292v31.328c3.626-4.13 8.32-6.196 14.07-6.196 7.8 0 13.821 2.802 18.07 8.396 4.245 5.599 6.369 13.474 6.369 23.63v.982h.004c0 10.271-2.129 18.168-6.373 23.69-4.249 5.518-10.233 8.277-17.951 8.277-6.374 0-11.51-2.526-15.404-7.583l-.813 6.428h-17.49V42.318zm-151.845 4.634v37.176l7.067-10.71 18.184-26.466h25.136l-28.496 37.294 28.496 47.024h-24.091L265.65 99.883h-.004l-8.337 9.15v22.237h-20.33V46.952zm75.228 21.658v62.66h-19.576V68.61zm44.823-1.16c2.082 0 3.898.233 5.442.695l-.347 18.128-6.428-.465c-6.136 0-10.076 1.93-11.815 5.793v39.67h-19.513V68.61h18.298l.635 8.049c3.284-6.136 7.859-9.209 13.728-9.209zm-267.33.259v21.159l-21.16 10.96v1.735h21.16v16.927h-67.71v-16.927h21.16v-1.85l-21.16-10.845v-21.16l33.855 18.185zM418.3 82.507c-4.401 0-7.448 1.68-9.15 5.036v24.904c1.66 3.322 4.749 4.98 9.268 4.98 4.592 0 7.507-2.238 8.743-6.715.618-2.2.927-6.026.927-11.468 0-6.022-.804-10.317-2.404-12.886-1.604-2.564-4.062-3.85-7.384-3.85zm-95.626-40.19c5.843 0 10.58 4.737 10.58 10.58s-4.737 10.58-10.58 10.58-10.58-4.737-10.58-10.58 4.737-10.58 10.58-10.58z"/>
</svg>
